packages/icons/general/SignUpAccount.svg

<svg width="48" height="48" viewBox="0 0 48 48" xmlns="http://www.w3.org/2000/svg">
<g>
        <rect x="7" y="26.5" width="3" height="15" rx="1.5" transform="rotate(-30 7 26.5)" fill="#1C68F3" />
        <path
            fill-rule="evenodd"
            clip-rule="evenodd"
            d="M27.6522 26.1312C25.4873 26.8222 23.1442 26.4569 21.0187 25.1362C20.7879 24.9826 20.4804 24.9445 20.1917 25.0366C19.9031 25.1288 19.6745 25.338 19.5614 25.6241C18.6082 27.9049 16.8895 29.5668 14.7246 30.2579C11.2607 31.3636 7.32552 29.7117 4.9138 26.1422C4.26886 25.1894 3.7485 24.1287 3.38651 22.9947C3.21538 22.4586 3.07891 21.8887 2.96965 21.3329L2.59926 19.2474L4.32911 20.4673C4.65464 20.7042 5.085 20.7712 5.45613 20.6528C5.55922 20.6199 5.65573 20.5663 5.75224 20.5128L6.18959 20.0324L6.21766 19.978L6.27381 19.8692C7.46739 18.0569 9.237 16.6968 11.3194 16.0321C13.2782 15.4068 15.3791 15.4405 17.3212 16.1155C18.5131 14.4401 20.2059 13.1954 22.1647 12.5701C24.2265 11.9119 26.4774 11.9886 28.5003 12.7742L28.6091 12.8303C28.6907 12.8724 28.7929 12.9079 28.8951 12.9435L28.8951 12.9435L28.9223 12.9575C29.1474 13.022 29.3939 13.0114 29.6414 12.9325C30.0331 12.8074 30.3244 12.51 30.4525 12.1283L31.1349 10.1383L32.0414 12.0527C32.3016 12.5831 32.4933 13.1126 32.6644 13.6487C33.0264 14.7827 33.2169 15.9487 33.2433 17.099C33.387 21.3925 31.1161 25.0254 27.6522 26.1312ZM14.3081 24.8247C14.0195 24.9169 13.7176 24.9678 13.4092 24.9981C11.7172 25.1065 10.144 23.9502 9.41964 23.3181C9.94034 22.743 10.98 21.7295 12.2789 21.3149C12.5882 21.2161 12.8694 21.1718 13.1778 21.1415C14.8699 21.0331 16.4431 22.1894 17.1674 22.8215C16.6261 23.4032 15.5864 24.4167 14.3081 24.8247ZM21.3738 21.4788C22.1314 21.6459 23.5866 21.8629 24.8649 21.4549C25.1742 21.3562 25.4497 21.2228 25.698 21.0754C27.1193 20.19 27.7522 18.3294 27.9763 17.3946C27.2187 17.2275 25.7635 17.0104 24.4852 17.4185C24.1759 17.5172 23.9004 17.6506 23.6521 17.798C22.2308 18.6834 21.5979 20.5439 21.3738 21.4788Z"
            fill="url(#paint0_linear)"
        />
        <g filter="url(#filter0_b)">
            <path
                fill-rule="evenodd"
                clip-rule="evenodd"
                d="M28.5306 16.4749L28.894 15.8691L45.9996 21.5145L45.9269 22.2171C45.7816 23.7435 45.4666 25.27 44.9578 26.7722C43.7706 30.3338 41.7353 33.3867 39.2397 35.3734C37.3741 36.8514 35.3631 37.6267 33.449 37.6267C32.6979 37.6267 31.9711 37.5298 31.2684 37.2875C28.7486 36.4395 26.883 34.2104 26.035 30.988C25.2112 27.9109 25.405 24.2524 26.5922 20.6907C27.0768 19.1885 27.731 17.7832 28.5306 16.4749ZM30.7116 26.4814C31.0751 26.651 31.4627 26.7237 31.8988 26.7237C32.2865 26.7237 32.7226 26.651 33.183 26.5299C33.678 26.3649 34.0759 26.1583 34.2507 26.0675C34.3069 26.0383 34.3401 26.0211 34.346 26.0211L34.8305 25.7303L34.564 25.2215C34.5398 25.1488 33.7645 23.6709 32.238 22.9924C30.7116 22.314 29.0883 22.7501 29.0156 22.7744L28.4583 22.9198L28.5795 23.477C28.5864 23.484 28.6014 23.5348 28.626 23.6186C28.6872 23.827 28.8083 24.2392 29.0156 24.6885C29.4517 25.5607 30.0332 26.1907 30.7116 26.4814ZM38.2468 29.0497C38.4407 29.0981 38.6345 29.1224 38.8525 29.1224C39.434 29.1224 40.064 28.9528 40.6697 28.6378C41.2997 28.3228 41.7116 27.9594 41.7358 27.9351L42.1719 27.5475L41.8327 27.0871C41.7842 27.0144 40.7424 25.6819 39.1191 25.3184C37.6165 24.982 36.2177 25.5797 35.9603 25.6897C35.9396 25.6986 35.9263 25.7043 35.9208 25.7061L35.412 25.9484L35.6301 26.4814C35.6301 26.5056 35.8482 27.0387 36.26 27.5959C36.8415 28.3713 37.52 28.8801 38.2468 29.0497Z"
                fill="#1C68F3"
                fill-opacity="0.1"
            />
        </g>
        <defs>
            <filter
                id="filter0_b"
                x="21.5332"
                y="11.8691"
                width="28.4664"
                height="29.7576"
                filter-units="userSpaceOnUse"
                color-interpolation-filters="sRGB">
                <feFlood flood-opacity="0" result="BackgroundImageFix" />
                <feGaussianBlur in="BackgroundImage" std-deviation="2" />
                <feComposite in2="SourceAlpha" operator="in" result="effect1_backgroundBlur" />
                <feBlend mode="normal" in="SourceGraphic" in2="effect1_backgroundBlur" result="shape" />
            </filter>
            <linearGradient
                id="paint0_linear"
                x1="3"
                y1="21.4999"
                x2="32.5"
                y2="11.9999"
                gradient-units="userSpaceOnUse">
                <stop stop-color="#1C68F3" />
                <stop offset="1" stop-color="#6CB8FF" />
            </linearGradient>
        </defs>
    </g>
</svg>

<svg xmlns="http://www.w3.org/2000/svg" width="48" height="48">
    <rect width="3" height="15" x="7" y="26.5" fill="#1C68F3" rx="1.5" transform="rotate(-30 7 26.5)"/>
    <path fill="url(#SignUpAccount_svg__a)" fill-rule="evenodd" d="M27.652 26.131c-2.165.691-4.508.326-6.633-.995a.968.968 0 0 0-.827-.1.995.995 0 0 0-.63.588c-.954 2.28-2.672 3.943-4.837 4.634-3.464 1.106-7.4-.546-9.811-4.116a12.289 12.289 0 0 1-1.527-3.147 15.11 15.11 0 0 1-.417-1.662l-.37-2.086 1.73 1.22a1.28 1.28 0 0 0 1.126.186c.103-.033.2-.087.296-.14l.438-.48.028-.055.056-.109a9.5 9.5 0 0 1 5.045-3.837 9.479 9.479 0 0 1 6.002.084 9.48 9.48 0 0 1 4.844-3.546 9.544 9.544 0 0 1 6.335.204l.11.056c.08.042.183.078.285.114l.027.013c.225.065.472.054.72-.025a1.25 1.25 0 0 0 .81-.804l.683-1.99.906 1.915c.26.53.452 1.06.623 1.596.362 1.134.553 2.3.58 3.45.143 4.293-2.128 7.926-5.592 9.032Zm-13.344-1.306a4.32 4.32 0 0 1-.899.173c-1.692.108-3.265-1.048-3.99-1.68.521-.575 1.561-1.588 2.86-2.003.31-.099.59-.143.899-.174 1.692-.108 3.265 1.048 3.99 1.68-.542.582-1.582 1.596-2.86 2.004Zm7.066-3.346c.757.167 2.213.384 3.49-.024.31-.099.586-.232.834-.38 1.421-.885 2.054-2.746 2.278-3.68-.757-.168-2.212-.385-3.49.024-.31.098-.586.232-.834.379-1.421.885-2.054 2.746-2.278 3.68Z" clip-rule="evenodd"/>
    <g filter="url(#SignUpAccount_svg__b)">
        <path fill="#1C68F3" fill-opacity=".1" fill-rule="evenodd" d="m28.53 16.475.364-.606L46 21.515l-.073.702a20.116 20.116 0 0 1-.97 4.555c-1.186 3.562-3.222 6.615-5.717 8.601-1.866 1.478-3.877 2.254-5.791 2.254-.751 0-1.478-.097-2.18-.34-2.52-.847-4.386-3.077-5.234-6.299-.824-3.077-.63-6.736.557-10.297a19.613 19.613 0 0 1 1.939-4.216Zm2.182 10.006c.363.17.75.243 1.187.243.387 0 .824-.073 1.284-.194a7.308 7.308 0 0 0 1.068-.463.737.737 0 0 1 .095-.046l.485-.29-.267-.51c-.024-.072-.8-1.55-2.326-2.229-1.526-.678-3.15-.242-3.222-.218l-.558.146.122.557a.876.876 0 0 1 .046.142c.061.208.182.62.39 1.07.436.872 1.017 1.502 1.696 1.792Zm7.535 2.569c.194.048.388.072.605.072.582 0 1.212-.17 1.818-.484a5.1 5.1 0 0 0 1.066-.703l.436-.387-.34-.46c-.048-.074-1.09-1.406-2.713-1.77-1.502-.336-2.901.262-3.159.372a.765.765 0 0 1-.04.016l-.508.242.218.533c0 .025.218.558.63 1.115.582.775 1.26 1.284 1.987 1.454Z" clip-rule="evenodd"/>
    </g>
    <defs>
        <linearGradient id="SignUpAccount_svg__a" x1="3" x2="32.5" y1="21.5" y2="12">
            <stop stop-color="#1C68F3"/>
            <stop offset="1" stop-color="#6CB8FF"/>
        </linearGradient>
        <filter id="SignUpAccount_svg__b" width="28.466" height="29.758" x="21.533" y="11.869" color-interpolation-filters="sRGB">
            <feFlood flood-opacity="0" result="BackgroundImageFix"/>
            <feGaussianBlur in="BackgroundImage"/>
            <feComposite in2="SourceAlpha" operator="in" result="effect1_backgroundBlur"/>
            <feBlend in="SourceGraphic" in2="effect1_backgroundBlur" result="shape"/>
        </filter>
    </defs>
</svg>
